X: 1542
T: Hiawatha
C:Charles N Daniels, (1878 - 1943) Pub. 1901
B: australian traditional tunes wiki
M:2/4
L:1/8
R: Reel
Q: 1/4=100
K:Dmaj
V:1 
de |f/2e/2d/2B/2 "D"AA/2F/2 |AA/2F/2 AA/2F/2| B/2A/2G/2F/2 A>G|"A" E3 C/D/|
EF GA|BA Bc|"D"d/2c/2d/2e/2 f2-|fz zd/e/ |
"D"f/2e/2d/2B/2 AA/2F/2| AA/2F/2 AA/2F/2| B/2A/2G/2F/2 A>G|"A" E3 C/D/|
EF GA|BA Bc|"D"d2-d2|zd cd|
"A"e2 "D"d2|"A"c2 B2|"D"AA/F/ A2-|AA FA|
"A"GG/E/ G2-|GE GE|"D"AA/F/ A2-|Ad cd|
"A"e2 "D"d2|"A" c2 B2|"D"AA/F/ A2-|AA FA|
"A"G>E G2-|GB cf|"D"d4-|d2:|
% abcbook-tune_id 6342d53ab2bf3ca9ea6e9b9b


% abcbook-boost 0
% abcbook-tablature 
% abcbook-transpose 
% abcbook-lastupdated 1665324370204
% abcbook-soundfonts 
% abcbook-repeats 1
% NFF Book 2022
% Bush Traditions recording played by Ian Hayden

